!!!!SEGMENT: pl-gd--ms-4012--002-002_sokol-andrzej--missa-sicut-caervus-et-in-terra.krn
!!!cenid: 16xx:1748
!!!COM: Sokół, Andrzej
!!!COM-rismID: pe30023394
!!!CDT: 1589-1654
!!!CNT: Polish
!!!OPR: Missa sicut caervus
!!!OTL: Et in terra
!!!OMV: 002
!!!PDT:
!!!AGN: Sacred; Mass section
!!!SMS-siglum: PL-Gd
!!!SMS-shelfmark: Ms 4012
!!!SMS-variant:
!!!SMS-altvar:
!!!SMS-shelfwork: 002-002 M
!!!NIFC-rismSourceID: 305000112
!!!NIFC-rismChildID: 305000370
!!!NIFC-islandoraID: pl-gd:8969
!!!URL-pdf-islandora: https://repozytorium.nifc.pl/islandora/object/pl-gd%3A8969/datastream/PDF/view#page=165
!!!URL-scan: https://polish.musicsources.pl/pl/lokalizacje/galeria/rekopisy/5111 @EN{Scan on Polish Music Sources Website} @PL{Skany w portalu Dziedzictwo Muzyki Polskiej w otwartym dostępie}
!!!ONB-nifc: UWAGA:  partia [bassus pro organo], 150v-151r, skan 0165. Części: 1. Kyrie, 2. Et in terra
!!!AIN: 1 organ
!!!key: d
**kern
*I"[bassus pro organo]
*I'[org]
*ICklav
*Iorgan
*clefC4
*k[]
*d:
*M2/1
*met(C|)
=1-
2.d\
4d\
2d\
2A/
=2-
1d
2d\
2d\
=3-
2.A/
4A/
2A/
2D/
*clefF4
=4-
2.D/
4D/
2D/
2AA/
=5-
2.BB-X/
4AA/
2GG/
2GG/
=6-
2FF/
1F
2C/
=7-
2G\
2D/
1AA
=8-
2D/
2D/
4.GG/
8AA/,
4BB-X/
4GG/
=9-
1D
!LO:LB:g=original
2A\
2AA/
=10-
2FF/
4FF/
2C/
4D/
2AA/
=11-
2AA/
2E\
4.D/
8E\
4F\
4F\
=12-
2E\
2E\
4F\
4F\
4D/
4E\
=13-
!LO:TX:b:t=y
2AA/
2AA/
4F\
4F\
4D/
4E\
=14-
1AA
1.FF
=15-
2FF/
2C/
2.FF/
=16-
4FF/
2C/
1GG
=17-
1D
2AA/
2D/
=18-
1C
!LO:LB:g=original
2FF/
2.F\
=19-
4F\
2D/
0E
=20-
2AA/
2.A\
=21-
4A\
2D/
2.E\
4F\
=22-
1G
2C/
1G\
=23-
2A\
1F
=24-
1E
2AA/
1AA/
=25-
2E\
4D/
4C/
4D/
4E\
=26-
1F
2C/
2G\
=27-
2D/
2A\
2D/
2.D/
=28-
4D/
2AA/
1BB-X
=29-
2AA/
1D
2E\
!LO:LB:g=original
=30-
2.F\
4F\
1E
=31-
0C
=32-
1GG
0D
=33-
2AA/
2.AA/
=34-
4AA/
2D/
1BB-X
=35-
2FF/
2.F\
4E\
!LO:TX:b:t=y
1D\
=36-
2F\
1D
=37-
1FF
2C/
2D/
=38-
1AA
2D/
2.D/
=39-
4D/
2AA/
1D
=40-
00AA/
!LO:LB:g=original
*clefC4
=41-
!LO:TX:b:t=Qui tollis
1A
1d
=42-
2d\
2c\
2d\
2e\
=43-
1D
1A
=44-
2A/
2G/
2A/
2B\
=45-
2c\
*clefF4
2AA/
1D
=46-
2D/
2C/
2D/
2E\
=47-
1F
2E\
1E\
=48-
2C#X/
2.D/
4C#/
=49-
2BB-/
2AA/
1E
=50-
1AA
1D
=51-
1AA
1E
=52-
*custos:D
1AA
2D/
2D/
=53-
2D/
2AA/
2.BB-X/
4AA/
=54-
1GG
1FF
=55-
*M3/1
*met(O|3/2)
1.FF
2FF/
1Cny
=56-
1.FF
2FF/
1C
=57-
0G
1D
=58-
1.F
2G\
1A
=59-
*col
1D
0E
*Xcol
=60-
0AA
1E
=61-
1.F
2G\
1A
=62-
*col
1B-X
0A
*Xcol
=63-
*M2/1
*met(C|)
2D/
2D/
1F
=64-
2C/
2C/
2.E\
4F\
=65-
2G\
2G\
!LO:LB:g=original
2D/
1D\
=66-
2G\
2F\
2D/
=67-
2.E\
4F\
1G
=68-
2C/
1C
2GG/
=69-
2D/
2D/
2E\
2C/
=70-
1G
2D/
2D/
=71-
2E\
2C/
2.G\
4G\
=72-
2D/
2D/
1GG
=73-
2D/
2D/
1GG
=74-
2D/
2D/
2.AA/
4AA/
=75-
2D/
1D
2GG/
=76-
2.C/
4D/
0E
=77-
1AA
*custos:A
!LO:LB:g=original
=78-
2A\
4E\
4.C/
8D/L
8E/
8F/J
4G\
4A\
=79-
2E\
2AA/
2D/
4AA/
4.FF/
=80-
8GG/L
8AA/
8BB-/J
4C/
4D/
1AA
=81-
2F\
4F\
8F\L
8F\J
4FF/
4FF/
4FF/
8FF/L
8FF/J
=82-
4BB-X/
4BB-/
4FF/
4FF/
2C/
2FF/
=83-
4F\
8F\L
8F\J
4D/
4D/
4AA/
4D/
2E\
=84-
2AA/
2AA/
4D/
8D/L
8D/J
4AA/
4D/
=85-
2GG/
2D/
!LO:LB:g=original
1AA
=86-
2D/
2D/
4G\
8G\L
8G\J
4D/
4D/
=87-
4G\
8G\L
8G\J
4D/
4D/
4G\
8G\L
8G\J
4D/
4D/
=88-
4G\
8G\L
8G\J
2D/
2GG/
2D/
=89-
0AA
=90-
00D/
==
*-
!!!ENC: Andrzej Gręziak
!!!END: 2022-06-17
!!!ENC: Jan Barakat
!!!END: 2023-09-07
!!!YEC: Copyright 2022 Narodowy Instytut Fryderyka Chopina (https://polishscores.org)
!!!YEM: License CC-BY-4.0 (https://creativecommons.org/licenses/by/4.0)
